data/styles/clear/style-clear/symbols/photo-shop-m.svg

<svg height="24" viewBox="0 0 24 24" width="24"><g fill="none" fill-rule="evenodd"><circle cx="12" cy="12" fill="#fff" opacity=".6" r="12"/><circle cx="12" cy="12" fill="#8c5f93" r="11"/><path d="m10.3846154 7c-.5966154 0-.81006155.5045-1.07692309 1l-.53846154 1h-2.15384615c-.89492308 0-1.61538462.669-1.61538462 1.5v5c0 .831.72046154 1.5 1.61538462 1.5h10.76923078c.8949231 0 1.6153846-.669 1.6153846-1.5v-5c0-.831-.7204615-1.5-1.6153846-1.5h-2.1538462l-.5384615-1c-.2692308-.5-.4803077-1-1.0769231-1zm-3.76923078 3c.29733846 0 .53846153.2239.53846153.5s-.24112307.5-.53846153.5c-.29733847 0-.53846154-.2239-.53846154-.5s.24112307-.5.53846154-.5zm5.38461538 0c1.7843538 0 3.2307692 1.3431 3.2307692 3s-1.4464154 3-3.2307692 3-3.23076923-1.3431-3.23076923-3 1.44641543-3 3.23076923-3zm0 1.5c-.8921231 0-1.6153846.6716-1.6153846 1.5 0 .8284.7232615 1.5 1.6153846 1.5.8921231 0 1.6153846-.6716 1.6153846-1.5 0-.8284-.7232615-1.5-1.6153846-1.5z" fill="#fff"/></g></svg>

<svg width="24" height="24" viewBox="0 0 24 24">
  <g fill="none" fill-rule="evenodd">
    <circle cx="12" cy="12" r="12" fill="#FFF" opacity=".6"/>
    <circle cx="12" cy="12" r="11" fill="#8C5F93"/>
    <path fill="#FFF" d="M10.3846154,7 C9.788,7 9.57455385,7.5045 9.30769231,8 L8.76923077,9 L6.61538462,9 C5.72046154,9 5,9.669 5,10.5 L5,15.5 C5,16.331 5.72046154,17 6.61538462,17 L17.3846154,17 C18.2795385,17 19,16.331 19,15.5 L19,10.5 C19,9.669 18.2795385,9 17.3846154,9 L15.2307692,9 L14.6923077,8 C14.4230769,7.5 14.212,7 13.6153846,7 L10.3846154,7 L10.3846154,7 Z M6.61538462,10 C6.91272308,10 7.15384615,10.2239 7.15384615,10.5 C7.15384615,10.7761 6.91272308,11 6.61538462,11 C6.31804615,11 6.07692308,10.7761 6.07692308,10.5 C6.07692308,10.2239 6.31804615,10 6.61538462,10 L6.61538462,10 Z M12,10 C13.7843538,10 15.2307692,11.3431 15.2307692,13 C15.2307692,14.6569 13.7843538,16 12,16 C10.2156462,16 8.76923077,14.6569 8.76923077,13 C8.76923077,11.3431 10.2156462,10 12,10 L12,10 Z M12,11.5 C11.1078769,11.5 10.3846154,12.1716 10.3846154,13 L10.3846154,13 C10.3846154,13.8284 11.1078769,14.5 12,14.5 L12,14.5 C12.8921231,14.5 13.6153846,13.8284 13.6153846,13 L13.6153846,13 C13.6153846,12.1716 12.8921231,11.5 12,11.5 L12,11.5 L12,11.5 Z"/>
  </g>
</svg>
